remix/System/download-cloud-fill.svg

<svg viewBox="0 0 24 24" fill="currentColor" xmlns="http://www.w3.org/2000/svg"><path d="M7 20.9811C3.64378 20.7257 1 17.9216 1 14.5C1 12.1716 2.22429 10.1291 4.06426 8.9812C4.56469 5.044 7.92686 2 12 2C16.0731 2 19.4353 5.044 19.9357 8.9812C21.7757 10.1291 23 12.1716 23 14.5C23 17.9216 20.3562 20.7257 17 20.9811V21H7V20.9811ZM13 12V8H11V12H8L12 17L16 12H13Z"/></svg>

<svg viewBox="0 0 24 24" xmlns="http://www.w3.org/2000/svg"><path fill="none" d="M0 0h24v24H0Z"/><path d="M7 20.98h0C3.42 20.7.74 17.58 1.01 14c.15-2.07 1.29-3.93 3.04-5.03v-.001c.56-4.39 4.57-7.49 8.95-6.92 3.61.46 6.45 3.3 6.91 6.91v-.001c3.04 1.89 3.98 5.9 2.08 8.95 -1.1 1.75-2.96 2.88-5.03 3.04v.01h-10v-.02Zm6-8.99v-4h-2v4H8l4 5 4-5h-3Z"/></svg>
